public/static/tokens/BNB.svg

<svg fill="none" viewBox="0 0 24 24" xmlns="http://www.w3.org/2000/svg"><path d="m12 24c6.6274 0 12-5.3726 12-12 0-6.62742-5.3726-12-12-12-6.62742 0-12 5.37258-12 12 0 6.6274 5.37258 12 12 12z" fill="#003057"/><path d="m9.52024 19c-.14032-.0001-.27857-.033-.40337-.0961-.12481-.0631-.23259-.1546-.31444-.2668l-3.51215-4.7931h-2.29028v-1.7447h2.74361c.1402-.0002.27842.0326.40324.0955s.23263.1542.31454.2663l2.86995 3.9149 4.37866-9.85377c.069-.15536.1824-.28753.3265-.3803.144-.09276.3125-.14209.4845-.14193h5.479v1.74466h-4.8993l-4.7683 10.73194c-.0628.1415-.1627.2641-.2895.355-.12674.091-.27574.1471-.43181.1626-.03145.0017-.06297.0017-.09442 0" fill="#00c389"/><path d="m-.00000052 12.0001c-.00000029 6.6274 5.37258052 12 12.00000052 12 6.6274 0 12-5.3726 12-12s-5.3726-11.99997816-12-11.99997845c-6.62742-.00000029-12.00000023 5.37257845-12.00000052 11.99997845z" fill="#202336"/><path d="m12 23.5001c-6.35128 0-11.500001-5.1487-11.500001-11.5.000001-6.35125 5.148721-11.499979 11.500001-11.499978 6.3513 0 11.5 5.148728 11.5 11.499978 0 6.3513-5.1487 11.5-11.5 11.5z" stroke="#fff" stroke-opacity=".3"/><path clip-rule="evenodd" d="m8.8928 10.7232 3.1072-3.1072 3.1088 3.1088 1.808-1.808-4.9168-4.9168-4.9152 4.9152zm-4.8928 1.2768 1.808-1.808 1.808 1.808-1.808 1.808zm4.8928 1.2768 3.1072 3.1072 3.1088-3.1088 1.808 1.8072-4.9168 4.9176-4.9152-4.9152-.0024-.0024zm7.4912-1.2768 1.808-1.808 1.808 1.808-1.808 1.808zm-2.5504-.0016h.0016v.0016l-1.8352 1.8352-1.8328-1.832-.0032-.0032.0032-.0024.3208-.3216.156-.156 1.356-1.3552 1.8344 1.8344z" fill="#f6c83a" fill-rule="evenodd"/></svg>

<svg width="24" height="24" viewBox="0 0 24 24" fill="none" xmlns="http://www.w3.org/2000/svg">
<path d="M12 24C18.6274 24 24 18.6274 24 12C24 5.37258 18.6274 0 12 0C5.37258 0 0 5.37258 0 12C0 18.6274 5.37258 24 12 24Z" fill="#003057"/>
<path d="M9.52024 19C9.37992 18.9999 9.24167 18.967 9.11687 18.9039C8.99206 18.8408 8.88428 18.7493 8.80243 18.6371L5.29028 13.844H3V12.0993H5.74361C5.88381 12.0991 6.02203 12.1319 6.14685 12.1948C6.27167 12.2577 6.37948 12.349 6.46139 12.4611L9.33134 16.376L13.71 6.52223C13.779 6.36687 13.8924 6.2347 14.0365 6.14193C14.1805 6.04917 14.349 5.99984 14.521 6H20V7.74466H15.1007L10.3324 18.4766C10.2696 18.6181 10.1697 18.7407 10.0429 18.8316C9.91616 18.9226 9.76716 18.9787 9.61109 18.9942C9.57964 18.9959 9.54812 18.9959 9.51667 18.9942" fill="#00C389"/>
<path d="M-5.24537e-07 12.0001C-8.1423e-07 18.6275 5.37258 24.0001 12 24.0001C18.6274 24.0001 24 18.6275 24 12.0001C24 5.3727 18.6274 0.000121835 12 0.000121546C5.37258 0.000121256 -2.34843e-07 5.3727 -5.24537e-07 12.0001Z" fill="#202336"/>
<path d="M12 23.5001C5.64872 23.5001 0.499999 18.3514 0.499999 12.0001C0.5 5.64885 5.64872 0.500121 12 0.500122C18.3513 0.500122 23.5 5.64885 23.5 12.0001C23.5 18.3514 18.3513 23.5001 12 23.5001Z" stroke="white" stroke-opacity="0.3"/>
<path fill-rule="evenodd" clip-rule="evenodd" d="M8.8928 10.7232L12 7.616L15.1088 10.7248L16.9168 8.9168L12 4L7.0848 8.9152L8.8928 10.7232ZM4 12L5.808 10.192L7.616 12L5.808 13.808L4 12ZM8.8928 13.2768L12 16.384L15.1088 13.2752L16.9168 15.0824L12 20L7.0848 15.0848L7.0824 15.0824L8.8928 13.2768ZM16.384 12L18.192 10.192L20 12L18.192 13.808L16.384 12ZM13.8336 11.9984H13.8352V12L12 13.8352L10.1672 12.0032L10.164 12L10.1672 11.9976L10.488 11.676L10.644 11.52L12 10.1648L13.8344 11.9992L13.8336 11.9984Z" fill="#F6C83A"/>
</svg>
